layouts/icon-pack/spell_breath_attack.svg

<?xml version="1.0" encoding="UTF-8"?>
<svg width="1200pt" height="1200pt" version="1.1" viewBox="0 0 1200 1200" xmlns="http://www.w3.org/2000/svg">
 <g fill="#fff">
  <path d="m266.37 567.56c6.3984 27.656 16.406 76.734 18.586 119.93 0.089844 4.4414 2.8242 8.3984 6.9492 10.051 4.125 1.6484 8.8359 0.67188 11.965-2.4805 10.34-10.562 18.176-23.312 22.922-37.312 6.9414-20.992 4.2656-43.977-7.3125-62.812-8.25-13.547-20.438-29.484-36.492-39.844-8.3906-5.4141-18.938 2.5312-16.617 12.469z"/>
  <path d="m539.23 285.59c-2.7109-1.2578-5.8906-0.94141-8.2969 0.83203-2.4062 1.7695-3.6562 4.7148-3.2578 7.6758 2.1094 18.891 11.391 47.93 47.672 55.43 14.258 2.6133 28.18 6.8086 41.508 12.516 3.9336 1.7031 8.4922 1.0352 11.77-1.7266s4.7109-7.1406 3.6992-11.305c-3.7266-17.625-13.664-38.977-39.305-46.875-32.273-10.031-44.578-12.117-53.789-16.547z"/>
  <path d="m813.52 301.05c0 13.281-10.441 24.047-23.32 24.047-12.879 0-23.32-10.766-23.32-24.047s10.441-24.047 23.32-24.047c12.879 0 23.32 10.766 23.32 24.047"/>
  <path d="m1083.3 1022.5c-4.4883 4.7266-10.891 7.1445-17.383 6.5664-6.4922-0.58203-12.367-4.0938-15.945-9.543-5.9766-8.9766-11.438-23.438-11.859-46.617-0.58594-32.93 16.148-62.742 28.758-80.438 2.6992-3.8242 7.332-5.7891 11.957-5.0742s8.4453 3.9883 9.8633 8.4492c7.0508 20.547 11.469 41.906 13.148 63.562 1.2969 15.105-1.043 30.305-6.8203 44.32-2.7852 6.8906-6.7539 13.242-11.719 18.773z"/>
  <path d="m822.66 1007.5c0.91406 4.2891 2.0156 9.0703 3.3516 14.062 11.086 42.188 52.008 68.695 93.469 60.141l1.3828-0.28125c4.457-1.0977 8.1641-4.1719 10.059-8.3516 1.8984-4.1758 1.7734-8.9961-0.33203-13.07-11.531-23.18-38.719-62.93-91.758-70.312-4.75-0.59766-9.4961 1.1562-12.715 4.7031-3.2227 3.5469-4.5117 8.4375-3.457 13.109z"/>
  <path d="m1114.2 257.46c-11.719-31.969-31.664-67.617-65.273-91.875 0 0-52.922-42.656-71.391-86.367-1.4727-3.6172-5.1406-5.8359-9.0273-5.4648-3.8867 0.375-7.0664 3.2539-7.8242 7.082-1.8203 8-3.1016 16.109-3.8438 24.281-0.41797 5.8672-3.5234 11.215-8.4102 14.488-4.8867 3.2773-11.012 4.1133-16.598 2.2695-42.773-14.695-135.68-33.891-231.09 29.109-10.5 7.0312-7.1953 23.438 5.1328 25.359 54.938 8.2969 161.04 39.375 215.98 155.37 1.7578 3.7109 2.9648 7.6602 3.5859 11.719 1.6875 11.555 1.7812 33.328-19.195 41.273-9.5 3.5742-20.035 3.2188-29.273-0.98438-5.1484-2.2617-9.7617-5.5938-13.523-9.7734-2.3477-2.5664-6.0664-3.3516-9.25-1.9492-3.1836 1.3984-5.1211 4.6719-4.8125 8.1367 1.4766 19.875 8.6719 45.164 30.469 70.547 14.004 16.098 22.457 36.27 24.117 57.539 2.1328 30.141-6.1406 68.438-53.906 88.43-6.4258 2.6328-13.199 4.3242-20.109 5.0156-7.6719 0.77734-15.391 0.93359-23.086 0.46875-36.445-2.3438-64.242-33.984-64.641-71.648-0.375-37.078-10.594-90.984-60.422-123.47-9.8906-6.4453-22.641 2.6016-20.367 14.461 5.1797 27.164 5.5312 64.312-30.141 67.711-15.879 1.2539-31.555-4.2422-43.172-15.141l-482.91-399.05c-19.664-17.883-47.414 9.1406-31.195 30.469 129.7 170.32 342.73 398.58 412.5 506.79 7.9375 12.086 11.66 26.453 10.594 40.875-0.60547 8.9023-3.5156 17.496-8.4375 24.938-19.219 28.125-60.938 24.633-77.344-5.4141-2.4688-4.5664-4.5977-9.3047-6.375-14.18-1.1836-3.2656-4.418-5.3203-7.875-5.0078-3.457 0.31641-6.2695 2.9219-6.8438 6.3438-5.7656 28.898-6.5859 74.695 34.617 103.12 20.277 13.922 45.168 19.426 69.422 15.352 14.723-2.4531 29.672-3.293 44.578-2.5078 55.148 3.3281 85.148 68.648 51.422 113.81-9.5508 12.777-21.68 23.406-35.602 31.195-21.402 12.152-46.129 17.156-70.57 14.273-37.312-4.4297-95.953-25.781-133.97-110.16-1.7617-4.1523-5.0898-7.4453-9.2617-9.1602s-8.8516-1.7148-13.023 0-7.5 5.0078-9.2617 9.1602c-2.1992 4.8984-4.1094 9.9219-5.7188 15.047-1.6094 5.5312-5.9023 9.875-11.414 11.555-5.5078 1.6758-11.496 0.46094-15.914-3.2344-31.031-25.781-83.156-91.406-79.688-237.96 0.46875-20.578-26.016-28.453-35.883-10.547-18 32.625-34.711 81.141-32.297 147 0 0-19.547 6.2109-43.5-12.633-9.75-7.6875-23.883-0.63281-24.422 12.023-3.6562 84.656 6.1406 296.34 185.93 365.95 33.203 12.613 68.453 18.973 103.97 18.75h359.44c20.016 0 27.656-26.977 10.758-38.039-8.0586-5.0938-16.648-9.2969-25.617-12.539-9.9688-3.6602-19.496-8.4258-28.406-14.203-12.91-8.4297-24.523-18.691-34.477-30.469-18.375-22.055-4.6875-56.414 23.438-59.578 28.223-3.3086 56.707-3.6914 85.008-1.1484 19.57 1.8984 34.289-17.883 27.188-36.773-13.523-35.766-29.602-64.875-73.57-129.52l-97.078-158.13c-10.594-17.25 9.2109-37.195 25.664-25.781 66.586 45.984 163.62 114.84 217.78 161.72 2.7461 2.3516 6.25 3.6328 9.8633 3.6133 3.6172-0.023438 7.1016-1.3477 9.8203-3.7344 2.7188-2.3867 4.4844-5.6719 4.9727-9.2539 2.457-15.586 6.1641-30.945 11.086-45.938 2.4922-8.1055 9.1016-14.277 17.359-16.207 8.2539-1.9297 16.914 0.67188 22.742 6.832 13.488 14.488 25.145 30.578 34.711 47.906 4.1055 7.3789 7.7383 15.012 10.875 22.852 4.5 10.945 16.406 32.648 45.117 50.883 4.1758 2.6133 9.4766 2.6094 13.652-0.003906 4.1719-2.6133 6.4883-7.3789 5.9648-12.277-1.8281-22.453-2.3438-57.492 6.3516-91.664 1.2148-5.5391 4.6484-10.336 9.5-13.277 4.8477-2.9375 10.691-3.7617 16.164-2.2734 5.4727 1.4844 10.098 5.1484 12.797 10.137 10.641 19.375 20.277 39.285 28.875 59.648 2.0273 4.8789 7.25 7.6211 12.418 6.5195 5.168-1.1055 8.8164-5.7344 8.6758-11.02v-435.49c0.18359-32.785-5.4062-65.344-16.523-96.188zm-541.71 300.35c0.23047 5.957-2.0977 11.727-6.3945 15.855-4.2969 4.1328-10.156 6.2305-16.098 5.7656-5.9414-0.46484-11.402-3.4453-15.008-8.1914l-93.75-111.84c-7.4062-9.6797 5.3438-21.984 14.227-13.711l110.16 95.039c4.4297 4.1719 6.9336 9.9922 6.9141 16.078zm-66.586 507.07c-7.2891 13.008-24.633 16.734-38.766 8.3203-14.133-8.4141-19.688-25.781-12.422-38.789 7.2656-13.008 24.633-16.734 38.766-8.3203 14.133 8.4141 19.758 25.781 12.422 38.789zm539.2-546.91c-3.0469 3.0117-7.5586 4.0039-11.586 2.5469-4.0312-1.457-6.8633-5.1016-7.2812-9.3672-2.2812-14.73-6.1172-29.18-11.438-43.102-12.797-35.836 6.375-59.18 20.859-70.898 2.3477-1.8516 5.5234-2.2578 8.2617-1.0625 2.7383 1.1953 4.6016 3.8008 4.8398 6.7812 1.125 10.383 5.8359 22.312 14.461 55.922 6.9375 26.719-5.5312 46.617-18.117 59.18z"/>
 </g>
</svg>

<?xml version="1.0" encoding="UTF-8" standalone="no"?>
<!DOCTYPE svg PUBLIC "-//W3C//DTD SVG 1.1//EN" "http://www.w3.org/Graphics/SVG/1.1/DTD/svg11.dtd">
<svg width="100%" height="100%" viewBox="0 0 512 512" version="1.1" xmlns="http://www.w3.org/2000/svg" xmlns:xlink="http://www.w3.org/1999/xlink" xml:space="preserve" xmlns:serif="http://www.serif.com/" style="fill-rule:evenodd;clip-rule:evenodd;stroke-linejoin:round;stroke-miterlimit:2;">
    <g transform="matrix(1,0,0,1,-69.1417,-69.1683)">
        <g transform="matrix(0.482254,0,0,0.482254,35.7978,35.8116)">
            <path d="M266.37,567.56C272.768,595.216 282.776,644.294 284.956,687.49C285.046,691.931 287.78,695.888 291.905,697.541C296.03,699.189 300.741,698.213 303.87,695.061C314.21,684.499 322.046,671.749 326.792,657.749C333.734,636.757 331.058,613.772 319.48,594.937C311.23,581.39 299.042,565.453 282.988,555.093C274.597,549.678 264.05,557.624 266.371,567.562L266.37,567.56Z" style="fill:white;fill-rule:nonzero;"/>
            <path d="M539.23,285.59C536.519,284.332 533.339,284.649 530.933,286.422C528.527,288.192 527.277,291.137 527.675,294.098C529.785,312.989 539.066,342.028 575.347,349.528C589.605,352.141 603.527,356.336 616.855,362.044C620.789,363.747 625.348,363.079 628.625,360.317C631.903,357.555 633.336,353.177 632.325,349.012C628.598,331.387 618.661,310.035 593.02,302.137C560.747,292.106 548.442,290.02 539.231,285.59L539.23,285.59Z" style="fill:white;fill-rule:nonzero;"/>
            <path d="M813.52,301.05C813.52,314.331 803.079,325.097 790.2,325.097C777.321,325.097 766.88,314.331 766.88,301.05C766.88,287.769 777.321,277.003 790.2,277.003C803.079,277.003 813.52,287.769 813.52,301.05" style="fill:white;fill-rule:nonzero;"/>
            <path d="M1083.3,1022.5C1078.81,1027.23 1072.41,1029.64 1065.92,1029.07C1059.42,1028.48 1053.55,1024.97 1049.97,1019.52C1044,1010.55 1038.53,996.085 1038.11,972.906C1037.53,939.976 1054.26,910.164 1066.87,892.468C1069.57,888.644 1074.2,886.679 1078.83,887.394C1083.45,888.109 1087.27,891.382 1088.69,895.843C1095.74,916.39 1100.16,937.749 1101.84,959.405C1103.14,974.51 1100.8,989.71 1095.02,1003.73C1092.23,1010.62 1088.27,1016.97 1083.3,1022.5L1083.3,1022.5Z" style="fill:white;fill-rule:nonzero;"/>
            <path d="M822.66,1007.5C823.574,1011.79 824.676,1016.57 826.012,1021.56C837.098,1063.75 878.02,1090.26 919.481,1081.7L920.863,1081.42C925.32,1080.32 929.027,1077.25 930.922,1073.07C932.821,1068.89 932.696,1064.07 930.59,1060C919.059,1036.82 891.871,997.07 838.832,989.688C834.082,989.09 829.336,990.844 826.117,994.391C822.895,997.938 821.606,1002.83 822.66,1007.5L822.66,1007.5Z" style="fill:white;fill-rule:nonzero;"/>
            <path d="M1114.2,257.46C1102.48,225.491 1082.54,189.843 1048.93,165.585C1048.93,165.585 996.005,122.929 977.536,79.218C976.063,75.601 972.395,73.382 968.509,73.753C964.622,74.128 961.442,77.007 960.685,80.835C958.864,88.835 957.583,96.944 956.841,105.116C956.423,110.983 953.317,116.331 948.431,119.604C943.544,122.881 937.419,123.717 931.833,121.874C889.06,107.179 796.153,87.983 700.743,150.983C690.243,158.014 693.547,174.421 705.875,176.342C760.813,184.639 866.915,215.717 921.855,331.712C923.613,335.423 924.82,339.372 925.441,343.431C927.129,354.986 927.222,376.759 906.246,384.704C896.746,388.278 886.211,387.922 876.973,383.719C871.825,381.458 867.212,378.126 863.45,373.946C861.103,371.38 857.384,370.594 854.2,371.997C851.017,373.395 849.079,376.669 849.388,380.133C850.864,400.008 858.06,425.297 879.857,450.68C893.861,466.778 902.314,486.95 903.974,508.219C906.107,538.36 897.833,576.657 850.068,596.649C843.642,599.282 836.869,600.974 829.959,601.665C822.287,602.442 814.568,602.599 806.873,602.134C770.428,599.79 742.631,568.15 742.232,530.486C741.857,493.408 731.638,439.502 681.81,407.016C671.919,400.57 659.169,409.617 661.443,421.477C666.622,448.641 666.974,485.789 631.302,489.188C615.423,490.442 599.747,484.946 588.13,474.047L105.22,74.997C85.556,57.114 57.806,84.137 74.025,105.466C203.725,275.786 416.755,504.046 486.525,612.256C494.462,624.342 498.185,638.709 497.119,653.131C496.513,662.033 493.603,670.627 488.681,678.069C469.462,706.194 427.743,702.702 411.337,672.655C408.868,668.088 406.74,663.35 404.962,658.475C403.779,655.209 400.544,653.154 397.087,653.467C393.63,653.783 390.818,656.389 390.243,659.811C384.478,688.709 383.658,734.506 424.86,762.931C445.137,776.853 470.028,782.357 494.282,778.283C509.005,775.83 523.954,774.99 538.86,775.775C594.008,779.103 624.008,844.423 590.282,889.585C580.732,902.362 568.602,912.991 554.68,920.78C533.278,932.932 508.551,937.936 484.11,935.053C446.798,930.623 388.157,909.272 350.14,824.893C348.379,820.741 345.051,817.448 340.879,815.733C336.707,814.018 332.027,814.018 327.856,815.733C323.684,817.447 320.356,820.74 318.594,824.893C316.395,829.791 314.485,834.815 312.875,839.94C311.266,845.471 306.973,849.815 301.461,851.495C295.953,853.171 289.965,851.956 285.547,848.26C254.516,822.479 202.391,756.854 205.859,610.3C206.328,589.722 179.843,581.847 169.976,599.753C151.976,632.378 135.265,680.894 137.679,746.753C137.679,746.753 118.132,752.964 94.179,734.12C84.429,726.433 70.296,733.488 69.757,746.143C66.101,830.799 75.898,1042.48 255.687,1112.09C288.89,1124.71 324.14,1131.07 359.657,1130.84L719.097,1130.84C739.113,1130.84 746.753,1103.87 729.855,1092.8C721.797,1087.71 713.207,1083.51 704.238,1080.27C694.269,1076.61 684.742,1071.84 675.832,1066.06C662.922,1057.63 651.309,1047.37 641.355,1035.59C622.98,1013.54 636.668,979.179 664.793,976.015C693.016,972.707 721.5,972.324 749.801,974.867C769.371,976.765 784.09,956.984 776.989,938.094C763.466,902.328 747.387,873.219 703.419,808.574L606.341,650.444C595.747,633.194 615.552,613.249 632.005,624.663C698.591,670.647 795.625,739.503 849.785,786.383C852.531,788.735 856.035,790.016 859.649,789.996C863.266,789.973 866.75,788.649 869.469,786.262C872.188,783.875 873.953,780.59 874.442,777.008C876.899,761.422 880.606,746.063 885.528,731.07C888.02,722.965 894.629,716.793 902.887,714.863C911.14,712.933 919.801,715.535 925.629,721.695C939.117,736.183 950.774,752.273 960.34,769.601C964.445,776.98 968.078,784.613 971.215,792.453C975.715,803.398 987.621,825.101 1016.33,843.336C1020.51,845.949 1025.81,845.945 1029.98,843.332C1034.15,840.719 1036.47,835.953 1035.95,831.055C1034.12,808.602 1033.61,773.563 1042.3,739.391C1043.52,733.852 1046.95,729.055 1051.8,726.114C1056.65,723.177 1062.49,722.352 1067.96,723.841C1073.44,725.325 1078.06,728.989 1080.76,733.978C1091.4,753.353 1101.04,773.263 1109.64,793.626C1111.66,798.505 1116.89,801.247 1122.05,800.145C1127.22,799.04 1130.87,794.411 1130.73,789.125L1130.73,353.635C1130.91,320.85 1125.32,288.291 1114.21,257.447L1114.2,257.46ZM572.49,557.81C572.72,563.767 570.392,569.537 566.096,573.665C561.799,577.798 555.94,579.896 549.998,579.431C544.056,578.966 538.596,575.985 534.99,571.239L441.24,459.399C433.833,449.719 446.583,437.415 455.467,445.688L565.627,540.727C570.056,544.899 572.56,550.719 572.541,556.805L572.49,557.81ZM505.904,1064.88C498.615,1077.89 481.271,1081.61 467.138,1073.2C453.005,1064.79 447.45,1047.42 454.716,1034.41C461.982,1021.4 479.349,1017.68 493.482,1026.09C507.615,1034.51 513.24,1051.87 505.904,1064.88ZM1045.1,517.97C1042.06,520.982 1037.55,521.974 1033.52,520.517C1029.49,519.06 1026.65,515.415 1026.24,511.15C1023.96,496.42 1020.12,481.97 1014.8,468.048C1002,432.212 1021.17,408.868 1035.66,397.15C1038.01,395.298 1041.18,394.892 1043.92,396.087C1046.66,397.282 1048.52,399.888 1048.76,402.868C1049.88,413.251 1054.6,425.18 1063.22,458.79C1070.16,485.509 1057.69,505.407 1045.1,517.97L1045.1,517.97Z" style="fill:white;fill-rule:nonzero;"/>
        </g>
    </g>
</svg>
